X:2
T:God Only Knows
C:Brian Wilson
L:1/4
M:C
I:linebreak $
K:E
"A" c2 c3/2 d/ |"E" e2 b2 |"F#m" a4 |"F#m" c/"G#m" d3/2"A" e2 |:$[K:D]"D" z2 (3d c d |
"Bm" c B F B ||[K:E]"F#m" z z/ A/ A/G/ A/c/ |"B7" f A B c |$"E" z e (3e d e |"F#o" f A B =c |
"E" z e (3e d e |"C#m" g c d e |$"A" z2 (3c B c |"G#m" (3B e B A G |"F#m" E2 F2 |
"E" G3/2 G/"F#m" A/"G#m" B3/2 |$"A" z2 (3c B c |"G#m" (3B e B A G |"F#m" E2 F2 |"E" E4 :|

